mono-glyphs/photos-w.svg

<svg xmlns="http://www.w3.org/2000/svg" width="1024" height="1024" fill="none" viewBox="0 0 1024 1024">
  <path fill="#fff" d="M252 832c-25 0-48.917-5.083-71.75-15.25s-42.833-23.833-60-41-30.833-37.167-41-60C69.083 692.917 64 669 64 644V252c0-25 5.083-48.917 15.25-71.75s23.833-42.833 41-60 37.167-30.833 60-41C203.083 69.083 227 64 252 64h392c25 0 48.917 5.083 71.75 15.25s42.833 23.833 60 41 30.833 37.167 41 60C826.917 203.083 832 227 832 252v392c0 25-5.083 48.917-15.25 71.75s-23.833 42.833-41 60-37.167 30.833-60 41C692.917 826.917 669 832 644 832H252Zm196-376c17 0 33.333 3.25 49 9.75 15.667 6.5 29.5 15.75 41.5 27.75l212 211.5c5.667-9.667 10-20.083 13-31.25 3-11.167 4.5-22.417 4.5-33.75V253.5c0-16.667-3.417-32.583-10.25-47.75-6.833-15.167-16-28.5-27.5-40s-24.833-20.667-40-27.5C675.083 131.417 659.167 128 642.5 128h-389c-16.667 0-32.583 3.417-47.75 10.25-15.167 6.833-28.5 16-40 27.5s-20.667 24.833-27.5 40C131.417 220.917 128 236.833 128 253.5V640c0 11.333 1.5 22.583 4.5 33.75 3 11.167 7.333 21.583 13 31.25l212-211.5c12-12 25.833-21.25 41.5-27.75 15.667-6.5 32-9.75 49-9.75Zm96-168c0-9 1.667-17.333 5-25 3.333-7.667 7.917-14.417 13.75-20.25S575.333 232.333 583 229s16-5 25-5c8.667 0 16.917 1.667 24.75 5 7.833 3.333 14.667 7.917 20.5 13.75s10.417 12.667 13.75 20.5 5 16.083 5 24.75c0 9-1.667 17.333-5 25-3.333 7.667-7.917 14.417-13.75 20.25S640.667 343.667 633 347s-16 5-25 5-17.417-1.667-25.25-5c-7.833-3.333-14.583-7.833-20.25-13.5s-10.167-12.417-13.5-20.25-5-16.25-5-25.25ZM384 960c-27.333 0-53.5-5.5-78.5-16.5S259 916.667 241 896h434.5c30.333 0 58.917-6 85.75-18s50.25-28.25 70.25-48.75S867.25 785 878.75 758 896 702.333 896 672V241c20.667 18 36.5 39.5 47.5 64.5S960 356.667 960 384v288c0 39.667-7.583 77-22.75 112s-35.75 65.5-61.75 91.5-56.5 46.583-91.5 61.75C749 952.417 711.667 960 672 960H384Zm256-192c11.333 0 22.583-1.5 33.75-4.5 11.167-3 21.583-7.333 31.25-13l-211.5-212c-12.667-12.667-27.833-19-45.5-19s-32.833 6.333-45.5 19L191 750.5c9.667 5.667 20.083 10 31.25 13 11.167 3 22.417 4.5 33.75 4.5h384Z"/>
</svg>

<svg width="1024" height="1024" viewBox="0 0 1024 1024" fill="none" xmlns="http://www.w3.org/2000/svg">
<path d="M252 832C227 832 203.083 826.917 180.25 816.75C157.417 806.583 137.417 792.917 120.25 775.75C103.083 758.583 89.4167 738.583 79.25 715.75C69.0833 692.917 64 669 64 644V252C64 227 69.0833 203.083 79.25 180.25C89.4167 157.417 103.083 137.417 120.25 120.25C137.417 103.083 157.417 89.4167 180.25 79.25C203.083 69.0834 227 64.0001 252 64H644C669 64.0001 692.917 69.0834 715.75 79.25C738.583 89.4167 758.583 103.083 775.75 120.25C792.917 137.417 806.583 157.417 816.75 180.25C826.917 203.083 832 227 832 252V644C832 669 826.917 692.917 816.75 715.75C806.583 738.583 792.917 758.583 775.75 775.75C758.583 792.917 738.583 806.583 715.75 816.75C692.917 826.917 669 832 644 832H252ZM448 456C465 456 481.333 459.25 497 465.75C512.667 472.25 526.5 481.5 538.5 493.5L750.5 705C756.167 695.333 760.5 684.917 763.5 673.75C766.5 662.583 768 651.333 768 640V253.5C768 236.833 764.583 220.917 757.75 205.75C750.917 190.583 741.75 177.25 730.25 165.75C718.75 154.25 705.417 145.083 690.25 138.25C675.083 131.417 659.167 128 642.5 128H253.5C236.833 128 220.917 131.417 205.75 138.25C190.583 145.083 177.25 154.25 165.75 165.75C154.25 177.25 145.083 190.583 138.25 205.75C131.417 220.917 128 236.833 128 253.5V640C128 651.333 129.5 662.583 132.5 673.75C135.5 684.917 139.833 695.333 145.5 705L357.5 493.5C369.5 481.5 383.333 472.25 399 465.75C414.667 459.25 431 456 448 456ZM544 288C544 279 545.667 270.667 549 263C552.333 255.333 556.917 248.583 562.75 242.75C568.583 236.917 575.333 232.333 583 229C590.667 225.667 599 224 608 224C616.667 224 624.917 225.667 632.75 229C640.583 232.333 647.417 236.917 653.25 242.75C659.083 248.583 663.667 255.417 667 263.25C670.333 271.083 672 279.333 672 288C672 297 670.333 305.333 667 313C663.667 320.667 659.083 327.417 653.25 333.25C647.417 339.083 640.667 343.667 633 347C625.333 350.333 617 352 608 352C599 352 590.583 350.333 582.75 347C574.917 343.667 568.167 339.167 562.5 333.5C556.833 327.833 552.333 321.083 549 313.25C545.667 305.417 544 297 544 288ZM384 960C356.667 960 330.5 954.5 305.5 943.5C280.5 932.5 259 916.667 241 896H675.5C705.833 896 734.417 890 761.25 878C788.083 866 811.5 849.75 831.5 829.25C851.5 808.75 867.25 785 878.75 758C890.25 731 896 702.333 896 672V241C916.667 259 932.5 280.5 943.5 305.5C954.5 330.5 960 356.667 960 384V672C960 711.667 952.417 749 937.25 784C922.083 819 901.5 849.5 875.5 875.5C849.5 901.5 819 922.083 784 937.25C749 952.417 711.667 960 672 960H384ZM640 768C651.333 768 662.583 766.5 673.75 763.5C684.917 760.5 695.333 756.167 705 750.5L493.5 538.5C480.833 525.833 465.667 519.5 448 519.5C430.333 519.5 415.167 525.833 402.5 538.5L191 750.5C200.667 756.167 211.083 760.5 222.25 763.5C233.417 766.5 244.667 768 256 768H640Z" fill="white"/>
</svg>
